X:1
T:Megindult a vonat
T:Megindult a vonat 
T:Nóta
C:Hungarian song
Z:Public Domain
L:1/8
Q:1/4=120
M:4/4
K:C
V:1 treble nm="MusicXML Part"
%%MIDI program 0
V:1
"C" CCCG, C E3 |"G" GGGF E D3 | EDCB, A, B,3 |"C" C4 C4!fine! :|"F" A2 A2 A2 A2 | A^GAB c B3 | %6
"C" G c3 G2 E2 |"G" FEFG A G3!D.C.! |] %8

